X:639
T:The Mavis Sweetly Sings
C:Henry Purcell
M:3/4
R:Triple-time
%%MIDI beat 100 95 80
S:Colin Hume's website,  colinhume.com  - chords can also be printed below the stave.
Q:1/4=120
L:1/4
K:C
P:A
|: G | "C"Gc "G"g | "C"e3/4f/4 e3/4f/4 "G"g | "Am"c3/4d/4 "G"B3/4c/4 d | "C"e3 |\
"D"A3/B/ "D7"A | "G"dG2 | "G"d3/e/ "G7"d | "C"gce/d/ | "G"B2 "D7"A/G/ | "G"G2 :|
P:B
d | "D"dAd | "G"B2 "C"e | "Am"e3/f/ "Dm"d | "E"eBe/d/ |\
"Am"c "Dm"f/e/ f/d/ | "G"B "C"e/d/ e/c/ | "Dm"A d/c/ d/B/ | "E"^G2 "E7"e | "Am"c2 "E7"B/A/ | "Am"A2e |
P:C
"Dm"f2A | "G"BGd | "G"gc B | "C"cGe | "G/G"c2 "G"B | "C"c2 |]

